X:120
T:the Female Rake
A:Wyresdale, Lancashire
B:E and J Winder, 1835-41
L:1/8
M:6/8
O:England
Z:Richard Robinson 
%%TUNEURL: http://www.leeds.ac.uk/music/Info/RRTuneBk/gettune/00000e97.html
%%ID:00000e97
K:D
ded dAF | GEA FDE | FGA Bcd | efd c2A |\
ded dAF | GEA FDE | FGA Bcd | ecA d3 ::
efd ecA | fdB ecA | e2f gfe | dcB A2F |\
GFG g2G | FDF f2F | EFG AFD | ecA d3 ::
